docs/img/icons/mail.svg

<svg viewBox="0 0 25 25" fill="none" xmlns="http://www.w3.org/2000/svg">
<path d="M23.7179 4.16664H1.28208C0.576904 4.16664 0 4.74355 0 5.44867V19.5513C0 20.2563 0.576904 20.8333 1.28208 20.8333H23.718C24.423 20.8333 25 20.2564 25 19.5513V5.44867C25 4.74355 24.4231 4.16664 23.7179 4.16664ZM23.2368 5.12812L13.2375 12.6282C13.0577 12.765 12.7817 12.8506 12.5 12.8494C12.2182 12.8506 11.9423 12.765 11.7625 12.6282L1.76313 5.12812H23.2368ZM17.8955 13.1231L23.3442 19.8539C23.3497 19.8606 23.3564 19.8658 23.3622 19.8719H1.63779C1.64355 19.8655 1.65029 19.8606 1.65576 19.8539L7.10449 13.1231C7.27144 12.9167 7.23979 12.6141 7.03301 12.4468C6.82661 12.2798 6.52402 12.3115 6.35703 12.5179L0.961523 19.183V5.72909L11.1858 13.3974C11.5702 13.6836 12.0377 13.8096 12.4999 13.8108C12.9614 13.8099 13.4294 13.6839 13.814 13.3974L24.0383 5.72909V19.1829L18.6429 12.5179C18.4759 12.3115 18.173 12.2798 17.9669 12.4468C17.7602 12.6137 17.7285 12.9167 17.8955 13.1231Z" fill="#FF8B00"/>
</svg>

<svg width="25" height="25" fill="none" xmlns="http://www.w3.org/2000/svg"><g clip-path="url(#clip0)"><path d="M23.718 4.167H1.282C.577 4.167 0 4.744 0 5.449V19.55c0 .705.577 1.282 1.282 1.282h22.436c.705 0 1.282-.577 1.282-1.282V5.45c0-.705-.577-1.282-1.282-1.282zm-.481.961l-10 7.5c-.18.137-.455.223-.737.221a1.251 1.251 0 01-.738-.22l-9.999-7.5h21.474zm-5.341 7.995l5.448 6.73c.006.008.012.013.018.019H1.638l.018-.018 5.448-6.73a.48.48 0 00-.747-.606L.962 19.183V5.729l10.224 7.668c.384.287.852.413 1.314.414.461-.001.93-.127 1.314-.414L24.038 5.73v13.454l-5.395-6.665a.48.48 0 10-.748.605z" fill="#FF8B00"/></g><defs><clipPath id="clip0"><path fill="#fff" d="M0 0h25v25H0z"/></clipPath></defs></svg>
